X:1
T:Harbor Lights
T:Harbor Lights
C:Hugh Williams
Z:All Rights Reserved
L:1/8
M:4/4
K:Eb
V:1 treble nm="Piano" snm="Pno."
%%MIDI program 0
%%MIDI control 7 100
%%MIDI control 10 64
V:1
"Eb" z2 E2 G2 B2 |:"Bb7" d3 d c4 | z c=Bc d>cd>c |"Ebdim" =A4"Eb" B4 | z2 B,2 E2 G2 | %5
w: I saw the|har- bor lights|they on- ly told me we were|part- ing,|The same old|
"Gm" B3 B"Fm" A4 |"Bb7" z A"Bbdim"GA"Fm7" c2"Bb7" B2 |"Eb""Eb+" G8 |"Eb" z2 E2 G2 B2 | %9
w: har- bor lights|That once brought you to|me,|I watched the|
"Bb7" d3 d c4 | z c=Bc d>cd>c |"Ebdim" =A4"Eb" B4 | z2 B,2 E2 G2 |"Gm" B3 B"Fm" A4 | %14
w: har- bor lights,|How could I help if tears were|start- ing?|Good- bye to|ten- der nights|
"Bb7" z A"Gdim"GA"Ab6" c2 D2 |"Eb""Ab6" E8- |"Eb" E2 E2"Bb7" F2"Eb7" G2 |"Ab" B3 A C2 E2 | %18
w: be- side the sil- v'ry|sea.|_ I longed to|hold you near and|
"Abm6" B2 A2 E2 F2 |"Eb""Eb+" G8- |"Eb" G2 C2 D2 E2 |"F7" G3 F F2 E2 | c2 G2"F7b5" F3 E | %23
w: kiss you just once|more,|_ But you were|on the ship and|I was on the|
"Bb7""Fm7" F8- |"Bb7" F2"Eb" E2 G2 B2 |"Bb7" d3 d c4 | z c=Bc d>cd>c |"Ebdim" =A4"Eb" B4 | %28
w: shore.|_ Now I know|lone- ly nights|for all the while my heart is|whs- p'ring|
 z2 B,2 E2 G2 |"Gm" B3 B"Fm" A4 |"Bb7" z A"Gdim"GA"Fm7" c2"Bb7" D2 |1"Eb""Ebdim" E8- | %32
w: Some oth- er|har- bor lights|will steal your love from|me.|
"Bb7" E z"Eb" E2 G2 B2 :|2"Eb""Abm6" E8- |"Eb" E2 z2 z4 |] %35
w: _ I saw the|me.|_|

